X:27
T:The Teddy Bears' Picnic
M:6/8
L:1/8
K:Em
B,|"Em"E2G "B"FGF|"Em"E2G "B"F2G|"Em"EFG "B"F2G|"Em"E3-E2D|\
"G"G2B "D"ABA|"G"G2B "D"A2B|"G"GAB "D"A2B|"G"G3-G2d|
"C"e2d e2d|"D"ABd B2A|"G"A2G A2G|"C"EFG E2D|\
"C"E2G "G"D2G|"C"EFG "G"D2B|"D"A3-A3|"G"G3-G2:|

%%newpage

